X:1740
L:1/8
M:2/4
K:C
 E/G/ |:"G7" GF FF/A/ |"C" AG GG/c/ |"G7" BB AA |"C" GG EE/G/ |"G7" GF FF/A/ |"C" AG GG/c/ | 
"G7" BB A>B |1"C" c3 E/G/ :|2"C" c3 z |:[K:G]"G" !>!B2 !>!B2 | BB/A/ GG/B/ |"D7" AA/G/ FF | 
"G" AG DG/A/ | !>!B2 !>!B2 | BB/A/ GG/B/ |"D7" AA/G/ FA |"G" G3 z ::[K:F]"F" A2 A>^G | A3 A | 
 AG GF |"C7" E>F G2 | B2 B>B | B3 B | BA AG |"F" F>G A2 | c2 c>=B | c3 c | cB BA |"Bb" B>c d2 | 
"C7" c2 G>B |"F" A2 F>A |"C7" G2 E>G |"F" F3 z |]

